!!!!SEGMENT: pl-sa--481-a-viii-121--014_hoffmeister-franz-anton--telemak.krn
!!!id: 18xx:385
!!!COM: Hoffmeister, Franz Anton
!!!COM-rism: pe94981
!!!CDT: 1754/05/12-1812/02/09
!!!CNT: German
!!!OTL: Telemak
!!!PDT:
!!!SMS-siglum: PL-SA
!!!SMS-shelfmark: 481/A VIII 121
!!!NIFC-rismID: 1001070660
!!!URL-scan: http://bc.bdsandomierz.pl/dlibra/publication/1212/edition/1171/content
!!!ONB-nifc: Str. 9, s. 1-3
!!!SMS-variant:
!!!SMS-altvar:
**kern	**kern	**dynam
*part2	*part1	*part1
*staff2	*staff1	*
*I"Piano	*I"Piano	*
*clefF4	*clefG2	*
*k[b-]	*k[b-]	*
*M6/8	*M6/8	*
!LO:TX:a:t=P:problem:przy kluczu błędnie bemol [AA-]	!	!
8r	8cc\	.
=1	=1	=1
4F\	4ff 4cc 4a\	.
8r	8r	.
4C/	4gg 4ee 4cc\	.
8r	8r	.
=2	=2	=2
4FF/	4.aa 4.ff 4.cc\	.
8ryy	.	.
4r	4r	.
=!|:	=!|:	=!|:
8r	8cc 8a\	.
=3	=3	=3
4F\	8.ccL 8.a/	.
.	16b-K 16g/	.
8r	8aJ 8f/	.
4FF/	8.aL 8.f/	.
.	16gK 16e/	.
8r	8aJ 8f/	.
=4	=4	=4
8r	4a 4f#X/	.
!LO:TX:a:t=P:problem:mixed beam	!	!
8C/L	.	.
8c\J	8b- 8g/	.
4C/	4g 4e/	.
8E\	8e/	.
=5	=5	=5
8.F\L	8.f/L	.
16E\K	16e/K	.
8F\J	8f/J	.
8.G\L	8.g/L	.
16F#X\K	16f#X/K	.
8G\J	8g/J	.
=6	=6	=6
8C\L	8c/L	.
8B- 8G\	8g 8e/	.
8B-J 8G\	8gJ 8e/	.
8B-L 8G\	8gL 8e/	.
8A 8F\	8a 8f/	.
8GJ 8E\	8b-J 8g/	.
=7	=7	=7
4F\	8.ccL 8.a/	.
.	16b-K 16g/	.
8r	8aJ 8f/	.
4FF/	8.aL 8.f/	.
.	16gK 16e/	.
8r	8aJ 8f/	.
=8	=8	=8
8r	(4a 4f#X/	.
!LO:TX:a:t=P:problem:mixed beam	!	!
8C/L	.	.
8c\J	8b- 8g/)	.
4C\	4g 4e/	.
8C/	8g 8e/	.
=9	=9	=9
4F\	8.ccL 8.a 8.f/	.
.	16b-K 16g/	.
8F\	8aJ 8f/	.
4C\	8.gL 8.e/	.
.	16aK 16f/	.
8C\	8gJ 8e/	.
!LO:LB:g=original	!LO:LB:g=original	!
=10	=10	=10
8F/L	8a/L	.
8C/	8ff 8cc 8a/	.
8AA/J	8ffJ 8cc 8a/	.
4FF/	4ff 4cc 4a/	.
!	!	!LO:DY:t=pia
8r	8a 8f/	p
=11	=11	=11
4.C/	8.gL 8.e/	.
.	16aK 16f/	.
.	8gJ 8e/	.
4.CC/	8gL 8e/	.
.	8e 8c/	.
.	8ccJ 8e/	.
=12	=12	=12
8r	4.cc 4.e/	.
8G\L	.	.
8G\J	.	.
!	!LO:SIC:v:n=1:s=4bn	!
4GG/	4b- 4d/	.
8r	8f 8d/	.
=13	=13	=13
4.G\	8fL 8d/	.
.	8a 8f/	.
.	8gJ 8e/	.
4.GG/	8fL 8d/	.
.	8e 8c/	.
.	8fJ 8d/	.
=14	=14	=14
8C/L	8fL 8d/	.
8GG/	8e 8c/	.
8EE/J	8eJ 8c/	.
4CC/	4e 4c/	.
8r	8g 8e/	.
=15	=15	=15
4G 4E 4C\	16g/LL	.
.	16e/	.
.	16c/	.
.	16e/	.
8r	16g/	.
.	16e/JJ	.
4G 4E 4C\	16g/LL	.
.	16c/	.
.	16cc/	.
.	16c/	.
8r	16b-X 16g/	.
.	16c/JJ	.
=16	=16	=16
4.F 4.FF\	(16aLL 16f/	.
.	16c/	.
.	16a 16f/	.
.	16c/	.
.	16a 16f/	.
.	16c/JJ)	.
4.F 4.FF\	16aLL 16f/	.
.	16c/	.
.	16cc 16a/	.
.	16c/	.
.	16a 16f/	.
.	16c/JJ	.
=17	=17	=17
4.G\	8.gL 8.e/	.
.	16aK 16f/	.
.	8gJ 8e/	.
4.GG/	8fL 8d/	.
.	8e 8c/	.
!	!LO:SIC:v:n=2:s=4Bn	!
.	8dJ 8B-/	.
=18	=18	=18
8C\L	8c<L 8G< 8E</	.
8GG\	8c< 8G< 8E</	.
8EE\J	8c<J 8G< 8E</	.
4CC\	4c< 4G< 4E</	.
!	!LO:TX:a:t=his	!
8r	8c/	.
!LO:LB:g=original	!LO:LB:g=original	!
=19	=19	=19
4.C 4.AA/	8f/L	.
.	8f/	.
.	8f/J	.
4.C 4.AA/	8fsS/L	.
.	8g/	.
.	8a/J	.
=20	=20	=20
8r	4a/	.
4D 4BB-/	.	.
.	8g/	.
8DL 8BB-/	4r	.
8DJ 8BB-/	.	.
8r	8g/	.
=21	=21	=21
4.E 4.C\	8g/L	.
.	8g/	.
.	8g/J	.
4.E 4.C#X\	8gsS\L	.
.	8a\	.
.	8b-\J	.
=22	=22	=22
!	!LO:N:vis=4.	!
8r	4b-\	.
8FL 8D\	.	.
8FJ 8D\	8a/	.
4F 4D\	4r	.
8r	8f/	.
=23	=23	=23
4.C 4.AA/	8f/L	.
.	8a/	.
.	8cc/J	.
4.C 4.AA/	8cc\L	.
.	8b-\	.
.	8a\J	.
=24	=24	=24
8r	(4a/	.
8DL 8BB-/	.	.
8DJ 8BB-/	8g/)	.
4D 4BB-/	4r	.
8A-X 8F 8D 8BBn\	8dd\	.
=25	=25	=25
*^	*	*
8An/L	8C\L	8f/L	.
8A/	8C\	8f/	.
8A/J	8C\J	8f/J	.
8A/L	8C\L	8f/L	.
8B-/	8C\	8gsS/	.
8G/J	8C\J	8e/J	.
*v	*v	*	*
=26	=26	=26
!	!LO:TX:a:t=P:problem:mixed beam	!
4.A 4.F\	16f/LL	.
.	16ff\	.
.	16gg\	.
.	16aa\	.
.	16bb-\	.
.	16ccc\JJ	.
4.A-X 4.F 4.D 4.BBn\	4ddd 4bb-X 4ff\	.
.	8dd\	.
=27	=27	=27
8AL 8C\	8f/L	.
8A 8C\	8f/	.
8AJ 8C\	8f/J	.
8AL 8C\	8f/L	.
8B- 8C\	8g/	.
8GJ 8C\	8e/J	.
=28	=28	=28
!LO:TX:a:t=P:problem:mixed beam	!	!
8AL 8F\	8f/L	.
8C/	8ff 8cc 8a/	.
8AA/J	8ffJ 8cc 8a/	.
4FF/	4ff 4cc 4a/	.
8r	8r	.
==	==	==
*-	*-	*-
!!!system-decoration: s1,s2
!!!RDF**kern: < = below
!!!ENC: Marta Lawrence
!!!END: 2020-11-20
!!!ENC: Andrzej Kubiczek
!!!END: 2020-06-14
